24x24/apps/code.svg

<svg xmlns="http://www.w3.org/2000/svg" width="24" height="24" version="1">
 <path style="opacity:0.2" d="M 21.292625,4.6189529 17.174318,2.6245512 C 16.697659,2.3936983 16.127935,2.4910774 15.753791,2.8673589 L 2.2718865,15.081077 c -0.3626293,0.332572 -0.3622123,0.906777 9e-4,1.238799 l 1.1012451,1.0069 c 0.2968629,0.271478 0.7439376,0.291423 1.0635598,0.0476 L 20.672931,5.1363481 c 0.544663,-0.4155911 1.32699,-0.02485 1.32699,0.6627739 v -0.0481 c 0,-0.4826805 -0.274907,-0.9226864 -0.707296,-1.1320745 z"/>
 <path style="opacity:0.2" d="m 17.174552,22.376175 c -0.476815,0.230638 -1.046539,0.133183 -1.420683,-0.243128 0.460965,0.463636 1.249226,0.135229 1.249226,-0.52049 V 3.3876236 c 0,-0.655719 -0.788261,-0.984111 -1.249226,-0.5204453 0.374144,-0.3763115 0.943868,-0.4738306 1.420683,-0.2431827 l 4.117605,1.9916617 C 21.724857,4.8249354 22,5.2651014 22,5.747992 v 13.504291 c 0,0.482876 -0.275143,0.923032 -0.707843,1.13231 z"/>
 <path style="fill:#0072b0" d="M 21.292625,4.1187884 17.174318,2.1243867 C 16.697659,1.8935338 16.127935,1.9909129 15.753791,2.3671944 L 2.2718865,14.580913 c -0.3626293,0.332572 -0.3622123,0.906776 9e-4,1.238798 l 1.1012451,1.006901 c 0.2968629,0.271477 0.7439376,0.291422 1.0635598,0.0476 L 20.672931,4.6361836 c 0.544663,-0.4155911 1.32699,-0.02485 1.32699,0.662774 v -0.0481 c 0,-0.4826806 -0.274907,-0.9226865 -0.707296,-1.1320746 z"/>
 <path style="opacity:0.1;fill:#f4f4f7" d="M 16.614307,2.0001878 C 16.29814,2.0054277 15.987803,2.132196 15.753963,2.3673719 L 2.271665,14.581127 c -0.248739,0.228122 -0.3222662,0.5688 -0.2294901,0.868157 0.042456,-0.13619 0.1162922,-0.264346 0.2294901,-0.368162 L 15.753963,2.8673673 c 0.374144,-0.3762815 0.943251,-0.4740147 1.419909,-0.2431618 l 3.846645,1.8632642 C 21.499773,4.3964621 22,4.7487434 22,5.2989856 V 5.251136 C 22,4.768454 21.725364,4.3277205 21.292975,4.1183324 L 17.173872,2.1242101 C 16.995125,2.0376402 16.804007,1.9970437 16.614307,2.0001878 Z"/>
 <path style="opacity:0.2" d="M 3.8976267,7.0069779 C 3.7087973,7.0154179 3.5226255,7.0880542 3.374194,7.2237729 L 2.2726416,8.2305997 C 1.9095292,8.5626117 1.9090357,9.1372989 2.2716666,9.4698459 L 15.753963,22.132816 c 0.460965,0.463636 1.249012,0.135216 1.249012,-0.520503 V 16.996144 L 4.4376608,7.1759214 C 4.2778496,7.0539855 4.0864559,6.998536 3.8976267,7.0069779 Z"/>
 <path style="fill:#008eda" d="m 21.292625,19.881459 -4.118307,1.994407 c -0.476659,0.230798 -1.046383,0.133419 -1.420527,-0.242813 L 2.2718865,8.969274 C 1.9092572,8.636727 1.9096742,8.0624973 2.2727865,7.7304853 L 3.3740316,6.7235445 C 3.6708945,6.452107 4.1179692,6.4321222 4.4375914,6.675995 L 20.672931,19.364029 c 0.544663,0.415576 1.32699,0.0249 1.32699,-0.662784 v 0.04815 c 0,0.482641 -0.274907,0.922642 -0.707296,1.13208 z"/>
 <path style="opacity:0.1;fill:#f4f4f7" d="M 3.8976267,6.5069825 C 3.7087973,6.5154224 3.5226255,6.5880588 3.374194,6.7237775 L 2.2726416,7.7306043 C 2.0226301,7.9592022 1.9481897,8.3013856 2.0421749,8.6016898 2.084622,8.4644496 2.1584724,8.3349903 2.2726416,8.2305997 L 3.374194,7.2237729 C 3.6710569,6.9523354 4.1180385,6.9320491 4.4376608,7.1759214 L 20.672864,19.864282 c 0.109386,0.08346 0.229309,0.125889 0.349606,0.148436 L 21.292975,19.88186 C 21.725364,19.672422 22,19.231698 22,18.749058 v -0.04785 c 0,0.687684 -0.782474,1.078656 -1.327136,0.66308 L 4.4376608,6.675926 C 4.2778496,6.5539901 4.0864559,6.4985406 3.8976267,6.5069825 Z"/>
 <path style="fill:#1eacf8" d="m 17.174552,21.876181 c -0.476815,0.230638 -1.046539,0.133184 -1.420683,-0.243128 0.460965,0.463636 1.249226,0.135229 1.249226,-0.52049 V 2.8876297 c 0,-0.655719 -0.788261,-0.984111 -1.249226,-0.5204453 0.374144,-0.3763115 0.943868,-0.4738306 1.420683,-0.2431827 l 4.117605,1.9916617 C 21.724857,4.3249415 22,4.7651075 22,5.247998 v 13.504291 c 0,0.482876 -0.275143,0.923032 -0.707843,1.13231 z"/>
 <path style="opacity:0.2;fill:#f4f4f7" d="m 16.614307,2.0001878 c -0.316205,0.00533 -0.626504,0.1319894 -0.860344,0.3671841 0.366634,-0.3687817 0.934846,-0.2325112 1.154287,0.1669907 0.09055,0.020538 0.18042,0.048156 0.266599,0.089843 l 4.117149,1.9911927 C 21.724699,4.8246763 22,5.2653099 22,5.7482005 V 5.248205 C 22,4.7653143 21.724699,4.3246808 21.291998,4.1154028 L 17.174849,2.1242101 C 16.996044,2.0377171 16.80403,1.9969875 16.614307,2.0001878 Z m 0.388668,19.1121292 c 0,0.655719 -0.788047,0.984139 -1.249012,0.520503 0.306522,0.308298 0.743857,0.426114 1.154287,0.333005 0.05646,-0.102789 0.09473,-0.219327 0.09473,-0.353512 z"/>
</svg>

<svg xmlns="http://www.w3.org/2000/svg" width="24" height="24" version="1"><path style="opacity:.2" d="m21.293 4.619-4.119-1.994a1.24 1.24 0 0 0-1.42.242L2.272 15.081a.84.84 0 0 0 0 1.239l1.102 1.007a.83.83 0 0 0 1.064.047L20.673 5.136A.827.827 0 0 1 22 5.8v-.048c0-.483-.275-.923-.707-1.132z"/><path style="opacity:.2" d="M17.175 22.376a1.24 1.24 0 0 1-1.421-.243c.46.464 1.25.135 1.25-.52V3.388c0-.656-.79-.984-1.25-.52a1.24 1.24 0 0 1 1.42-.244l4.118 1.992c.433.209.708.65.708 1.132v13.504c0 .483-.275.923-.708 1.133z"/><path style="fill:#0072b0" d="m21.293 4.119-4.119-1.995a1.24 1.24 0 0 0-1.42.243L2.272 14.581a.84.84 0 0 0 0 1.239l1.102 1.007a.83.83 0 0 0 1.064.047L20.673 4.636A.827.827 0 0 1 22 5.3v-.048c0-.483-.275-.923-.707-1.132z"/><path style="opacity:.1;fill:#f4f4f7" d="M16.614 2a1.242 1.242 0 0 0-.86.367L2.272 14.581a.837.837 0 0 0-.23.868.827.827 0 0 1 .23-.368L15.754 2.867a1.239 1.239 0 0 1 1.42-.243l3.847 1.863c.479-.09.979.262.979.812v-.048c0-.483-.275-.923-.707-1.133l-4.12-1.994A1.234 1.234 0 0 0 16.615 2z"/><path style="opacity:.2" d="M3.898 7.007a.829.829 0 0 0-.524.217L2.273 8.23a.841.841 0 0 0-.001 1.239l13.482 12.663c.46.463 1.249.135 1.249-.52v-4.617L4.438 7.176a.827.827 0 0 0-.54-.169z"/><path style="fill:#008eda" d="m21.293 19.881-4.119 1.995a1.24 1.24 0 0 1-1.42-.243L2.272 8.97a.84.84 0 0 1 0-1.239l1.102-1.006a.83.83 0 0 1 1.064-.048l16.235 12.688A.827.827 0 0 0 22 18.701v.048c0 .483-.275.923-.707 1.132z"/><path style="opacity:.1;fill:#f4f4f7" d="M3.898 6.507a.829.829 0 0 0-.524.217L2.273 7.73a.837.837 0 0 0-.23.87.827.827 0 0 1 .23-.37l1.101-1.007a.83.83 0 0 1 1.064-.048l16.235 12.688c.11.084.23.126.35.149l.27-.131c.432-.21.707-.65.707-1.133v-.048a.827.827 0 0 1-1.327.663L4.438 6.676a.827.827 0 0 0-.54-.169z"/><path style="fill:#1eacf8" d="M17.175 21.876a1.24 1.24 0 0 1-1.421-.243c.46.464 1.25.135 1.25-.52V2.888c0-.656-.79-.984-1.25-.52a1.24 1.24 0 0 1 1.42-.244l4.118 1.992c.433.209.708.65.708 1.132v13.504c0 .483-.275.923-.708 1.133z"/><path style="opacity:.2;fill:#f4f4f7" d="M16.614 2a1.242 1.242 0 0 0-.86.367c.367-.368.935-.232 1.154.167.09.02.18.049.267.09l4.117 1.991c.433.21.708.65.708 1.133v-.5c0-.483-.275-.923-.708-1.133l-4.117-1.99a1.238 1.238 0 0 0-.56-.125zm.389 19.112c0 .656-.788.984-1.249.52.306.31.744.427 1.154.334a.724.724 0 0 0 .095-.354z"/></svg>
